symbols/web/switch_account/materialsymbolsrounded/switch_account_wght200_48px.svg

<svg xmlns="http://www.w3.org/2000/svg" height="48" width="48"><path d="M27.55 23.85q2.1 0 3.525-1.425Q32.5 21 32.5 18.9q0-2.1-1.425-3.525-1.425-1.425-3.525-1.425-2.1 0-3.525 1.425Q22.6 16.8 22.6 18.9q0 2.1 1.425 3.525 1.425 1.425 3.525 1.425Zm-11.8 9.65q2.65-3 5.75-4.25T27.55 28q2.95 0 6.025 1.25T39.3 33.5q.55 0 .85-.35.3-.35.3-.85V8.75q0-.45-.375-.825-.375-.375-.825-.375h-23.4q-.45 0-.85.375-.4.375-.4.825V32.3q0 .5.325.85t.825.35Zm.1 1.4q-1.15 0-1.95-.8t-.8-1.95V8.75q0-1.15.8-1.95t1.95-.8h23.4q1.15 0 1.95.8t.8 1.95v23.4q0 1.15-.8 1.95t-1.95.8ZM8.75 42q-1.15 0-1.95-.8T6 39.25V15q0-.35.225-.55.225-.2.575-.2.3 0 .525.2.225.2.225.55v24.25q0 .5.35.85t.85.35H33q.35 0 .55.225.2.225.2.575 0 .3-.2.525-.2.225-.55.225Zm18.8-19.7q-1.4 0-2.4-1t-1-2.4q0-1.4 1-2.425t2.4-1.025q1.4 0 2.4 1.025t1 2.425q0 1.4-1 2.4t-2.4 1Zm-9.3 11.1H36.9q-1.75-1.75-4.175-2.8-2.425-1.05-5.175-1.05t-5.2 1.05q-2.45 1.05-4.1 2.8Zm9.3-12.9Z"/></svg>

<svg xmlns="http://www.w3.org/2000/svg" height="48" width="48"><path d="M27.55 23.85Q29.65 23.85 31.075 22.425Q32.5 21 32.5 18.9Q32.5 16.8 31.075 15.375Q29.65 13.95 27.55 13.95Q25.45 13.95 24.025 15.375Q22.6 16.8 22.6 18.9Q22.6 21 24.025 22.425Q25.45 23.85 27.55 23.85ZM15.75 33.5Q18.4 30.5 21.5 29.25Q24.6 28 27.55 28Q30.5 28 33.575 29.25Q36.65 30.5 39.3 33.5Q39.85 33.5 40.15 33.15Q40.45 32.8 40.45 32.3V8.75Q40.45 8.3 40.075 7.925Q39.7 7.55 39.25 7.55H15.85Q15.4 7.55 15 7.925Q14.6 8.3 14.6 8.75V32.3Q14.6 32.8 14.925 33.15Q15.25 33.5 15.75 33.5ZM15.85 34.9Q14.7 34.9 13.9 34.1Q13.1 33.3 13.1 32.15V8.75Q13.1 7.6 13.9 6.8Q14.7 6 15.85 6H39.25Q40.4 6 41.2 6.8Q42 7.6 42 8.75V32.15Q42 33.3 41.2 34.1Q40.4 34.9 39.25 34.9ZM8.75 42Q7.6 42 6.8 41.2Q6 40.4 6 39.25V15Q6 14.65 6.225 14.45Q6.45 14.25 6.8 14.25Q7.1 14.25 7.325 14.45Q7.55 14.65 7.55 15V39.25Q7.55 39.75 7.9 40.1Q8.25 40.45 8.75 40.45H33Q33.35 40.45 33.55 40.675Q33.75 40.9 33.75 41.25Q33.75 41.55 33.55 41.775Q33.35 42 33 42ZM27.55 22.3Q26.15 22.3 25.15 21.3Q24.15 20.3 24.15 18.9Q24.15 17.5 25.15 16.475Q26.15 15.45 27.55 15.45Q28.95 15.45 29.95 16.475Q30.95 17.5 30.95 18.9Q30.95 20.3 29.95 21.3Q28.95 22.3 27.55 22.3ZM18.25 33.4H36.9Q35.15 31.65 32.725 30.6Q30.3 29.55 27.55 29.55Q24.8 29.55 22.35 30.6Q19.9 31.65 18.25 33.4ZM27.55 20.5Q27.55 20.5 27.55 20.5Q27.55 20.5 27.55 20.5Q27.55 20.5 27.55 20.5Q27.55 20.5 27.55 20.5Q27.55 20.5 27.55 20.5Q27.55 20.5 27.55 20.5Q27.55 20.5 27.55 20.5Q27.55 20.5 27.55 20.5Q27.55 20.5 27.55 20.5Q27.55 20.5 27.55 20.5Q27.55 20.5 27.55 20.5Q27.55 20.5 27.55 20.5Z"/></svg>
